svg/u1f3f4_200d_2620.svg

<svg viewBox="0 0 128 128" xmlns="http://www.w3.org/2000/svg">
  <path d="M124,107.2c-41.55,17.8-78.49-17.79-120,0V20.8c41.51-17.79,78.45,17.8,120,0V107.2z" fill="#424242"/>
  <linearGradient id="SVGID_1_" gradientTransform="matrix(1 0 0 -1 0 128)" gradientUnits="userSpaceOnUse" x1="5.3708" x2="122.3705" y1="105.3417" y2="22.8407">
    <stop offset="0" stop-color="#FFFFFF" stop-opacity="0"/>
    <stop offset="0.8012" stop-color="#090909" stop-opacity="0.9151"/>
    <stop offset="1" stop-color="#000000"/>
  </linearGradient>
  <path d="M124,107.2c-41.55,17.8-78.49-17.79-120,0V20.8 c41.51-17.79,78.45,17.8,120,0V107.2z" enable-background="new " fill="url(#SVGID_1_)" opacity="0.3"/>
  <linearGradient id="SVGID_2_" gradientUnits="userSpaceOnUse" x1="4.8208" x2="120.1718" y1="64.0025" y2="64.0025">
    <stop offset="1.200100e-03" stop-color="#BFBEBE"/>
    <stop offset="0.2342" stop-color="#212121" stop-opacity="0"/>
    <stop offset="0.8034" stop-color="#212121" stop-opacity="0"/>
    <stop offset="1" stop-color="#BFBEBE"/>
  </linearGradient>
  <path d="M124,107.2c-41.55,17.8-78.49-17.79-120,0V20.8c41.51-17.79,78.45,17.8,120,0 V107.2z" fill="url(#SVGID_2_)" opacity="0.2"/>
  <linearGradient id="SVGID_3_" gradientUnits="userSpaceOnUse" x1="66.8368" x2="61.0349" y1="16.0106" y2="114.1588">
    <stop offset="1.200100e-03" stop-color="#BFBEBE"/>
    <stop offset="0.1974" stop-color="#212121" stop-opacity="0"/>
    <stop offset="0.7498" stop-color="#212121" stop-opacity="0"/>
    <stop offset="1" stop-color="#BFBEBE"/>
  </linearGradient>
  <path d="M124,107.2c-41.55,17.8-78.49-17.79-120,0V20.8c41.51-17.79,78.45,17.8,120,0 V107.2z" fill="url(#SVGID_3_)" opacity="0.2"/>
  <g>
    <path d="M37.44,68.83c1.68,0.78,3.51,0.18,4.08-1.41c4.45,2.28,6.67,3.58,11.12,6.28 c3.1-0.21,4.64-0.27,7.74-0.38c-6.91-4.4-10.37-6.62-17.29-10.28c0.57-1.58-0.34-3.59-2.02-4.44s-3.51-0.18-4.08,1.43 c-0.32,0.9-0.17,1.9,0.31,2.75c-0.86,0.23-1.57,0.85-1.88,1.76C34.85,66.16,35.76,68.05,37.44,68.83z" fill="#FFFFFF"/>
    <path d="M88.56,86.68c-1.68-0.82-3.51-0.26-4.08,1.31c-4.45-2.37-6.67-3.71-11.12-6.45 c-3.1,0.17-4.64,0.23-7.74,0.33c6.91,4.41,10.37,6.68,17.29,10.48c-0.57,1.56,0.34,3.59,2.02,4.48s3.51,0.27,4.08-1.33 c0.32-0.89,0.17-1.9-0.31-2.75c0.86-0.21,1.57-0.81,1.88-1.71C91.15,89.42,90.24,87.5,88.56,86.68z" fill="#FFFFFF"/>
    <path d="M84.48,78.74c0.57,1.8,2.39,3.05,4.08,2.73c1.68-0.31,2.59-2.04,2.02-3.8 c-0.32-0.98-1.02-1.77-1.88-2.23c0.48-0.71,0.62-1.68,0.31-2.66c-0.57-1.77-2.39-2.96-4.08-2.71s-2.59,1.86-2.02,3.67 c-13.78,1.45-27.65,0.98-41.39,2.94c-0.57-1.78-2.39-2.99-4.08-2.64c-1.68,0.36-2.59,2.11-2.02,3.85c0.32,0.97,1.02,1.74,1.88,2.18 c-0.48,0.73-0.62,1.69-0.31,2.67c0.57,1.75,2.39,2.89,4.08,2.61s2.59-1.92,2.02-3.71C56.85,79.92,70.72,80.4,84.48,78.74z" fill="#FFFFFF"/>
    <path d="M71.64,38.99c-5.39-4.43-11.89-6.49-17.29-5.11c-5.41,1.38-10.46,6.12-5.34,19.27 c0,0-2.74,8.24,5.95,8.65c0,0,1.39,0.16,1.3,2.23v0.99c0,0.64,0.52,1.3,1.15,1.48c0.01,0,0.02,0.01,0.03,0.01 c0.64,0.19,1.15-0.18,1.15-0.81v-0.96c0.56,0.16,0.83,0.25,1.39,0.41v0.96c0,0.64,0.52,1.3,1.15,1.5h0.01 c0.64,0.19,1.15-0.17,1.15-0.8v-0.96c0.56,0.17,0.83,0.25,1.39,0.42v0.96c0,0.64,0.52,1.31,1.15,1.5c0.64,0.19,1.15-0.17,1.15-0.8 v-0.96c0.56,0.17,0.83,0.25,1.39,0.42v0.96c0,0.64,0.52,1.31,1.15,1.49c0.01,0,0.02,0.01,0.03,0.01c0.64,0.19,1.15-0.18,1.15-0.81 v-0.99c-0.09-2.12,1.3-1.48,1.3-1.48c8.7,4.57,5.95-5.42,5.95-5.42C82.1,50.57,77.05,43.43,71.64,38.99z M56.97,55.69 c-2.4-0.7-4.35-3.17-4.35-5.58s1.95-3.83,4.35-3.13c2.41,0.7,4.35,3.24,4.35,5.64C61.33,55.03,59.38,56.39,56.97,55.69z M64.45,62.59c-0.89-0.71-1.92-1.02-2.81-0.85c-0.35,0.07-0.57-0.11-0.57-1.1c0-0.64,0.02-1.19,0.06-1.66 c0.1-1.1,0.93-1.7,1.91-1.41c0.99,0.3,1.81,1.4,1.91,2.56c0.04,0.49,0.06,1.06,0.06,1.7C65.01,62.81,64.8,62.87,64.45,62.59z M69.16,59.33c-2.4-0.71-4.35-3.25-4.35-5.66s1.95-3.76,4.35-3.05s4.35,3.21,4.35,5.61C73.51,58.64,71.56,60.05,69.16,59.33z" fill="#FFFFFF"/>
  </g>
</svg>

<svg viewBox="0 0 128 128" xmlns="http://www.w3.org/2000/svg">
  <defs>
    <linearGradient id="SVGID_1_" gradientTransform="matrix(1 0 0 -1 0 0)" gradientUnits="userSpaceOnUse" x1="5.3708" x2="122.3705" y1="-22.6583" y2="-105.1593">
      <stop offset="0" stop-color="#FFFFFF" stop-opacity="0"/>
      <stop offset="0.8012" stop-color="#090909" stop-opacity="0.9151"/>
      <stop offset="1" stop-color="#000000"/>
    </linearGradient>
    <linearGradient id="SVGID_2_" gradientUnits="userSpaceOnUse" x1="4.8208" x2="120.1718" y1="64.0025" y2="64.0025">
      <stop offset="1.200100e-03" stop-color="#BFBEBE"/>
      <stop offset="0.2342" stop-color="#212121" stop-opacity="0"/>
      <stop offset="0.8034" stop-color="#212121" stop-opacity="0"/>
      <stop offset="1" stop-color="#BFBEBE"/>
    </linearGradient>
    <linearGradient id="SVGID_3_" gradientUnits="userSpaceOnUse" x1="66.8368" x2="61.0349" y1="16.0106" y2="114.1588">
      <stop offset="1.200100e-03" stop-color="#BFBEBE"/>
      <stop offset="0.1974" stop-color="#212121" stop-opacity="0"/>
      <stop offset="0.7498" stop-color="#212121" stop-opacity="0"/>
      <stop offset="1" stop-color="#BFBEBE"/>
    </linearGradient>
  </defs>
  <path d="M124,107.2 C82.45,125 45.51,89.41 4,107.2 L4,20.8 C45.51,3.01 82.45,38.6 124,20.8 L124,107.2 Z" fill="#424242"/>
  <path d="M124,107.2 C82.45,125 45.51,89.41 4,107.2 L4,20.8 C45.51,3.01 82.45,38.6 124,20.8 L124,107.2 Z" fill="url(#SVGID_1_)" opacity="0.3"/>
  <path d="M124,107.2 C82.45,125 45.51,89.41 4,107.2 L4,20.8 C45.51,3.01 82.45,38.6 124,20.8 L124,107.2 Z" fill="url(#SVGID_2_)" opacity="0.2"/>
  <path d="M124,107.2 C82.45,125 45.51,89.41 4,107.2 L4,20.8 C45.51,3.01 82.45,38.6 124,20.8 L124,107.2 Z" fill="url(#SVGID_3_)" opacity="0.2"/>
  <path d="M37.44,68.83 C39.12,69.61 40.95,69.01 41.52,67.42 C45.97,69.7 48.19,71 52.64,73.7 C55.74,73.49 57.28,73.43 60.38,73.32 C53.47,68.92 50.01,66.7 43.09,63.04 C43.66,61.46 42.75,59.45 41.07,58.6 C39.39,57.75 37.56,58.42 36.99,60.03 C36.67,60.93 36.82,61.93 37.3,62.78 C36.44,63.01 35.73,63.63 35.42,64.54 C34.85,66.16 35.76,68.05 37.44,68.83 Z" fill="#FFFFFF"/>
  <path d="M88.56,86.68 C86.88,85.86 85.05,86.42 84.48,87.99 C80.03,85.62 77.81,84.28 73.36,81.54 C70.26,81.71 68.72,81.77 65.62,81.87 C72.53,86.28 75.99,88.55 82.91,92.35 C82.34,93.91 83.25,95.94 84.93,96.83 C86.61,97.72 88.44,97.1 89.01,95.5 C89.33,94.61 89.18,93.6 88.7,92.75 C89.56,92.54 90.27,91.94 90.58,91.04 C91.15,89.42 90.24,87.5 88.56,86.68 Z" fill="#FFFFFF"/>
  <path d="M84.48,78.74 C85.05,80.54 86.87,81.79 88.56,81.47 C90.24,81.16 91.15,79.43 90.58,77.67 C90.26,76.69 89.56,75.9 88.7,75.44 C89.18,74.73 89.32,73.76 89.01,72.78 C88.44,71.01 86.62,69.82 84.93,70.07 C83.24,70.32 82.34,71.93 82.91,73.74 C69.13,75.19 55.26,74.72 41.52,76.68 C40.95,74.9 39.13,73.69 37.44,74.04 C35.76,74.4 34.85,76.15 35.42,77.89 C35.74,78.86 36.44,79.63 37.3,80.07 C36.82,80.8 36.68,81.76 36.99,82.74 C37.56,84.49 39.38,85.63 41.07,85.35 C42.76,85.07 43.66,83.43 43.09,81.64 C56.85,79.92 70.72,80.4 84.48,78.74 Z" fill="#FFFFFF"/>
  <path d="M71.64,38.99 C66.25,34.56 59.75,32.5 54.35,33.88 C48.94,35.26 43.89,40 49.01,53.15 C49.01,53.15 46.27,61.39 54.96,61.8 C54.96,61.8 56.35,61.96 56.26,64.03 L56.26,65.02 C56.26,65.66 56.78,66.32 57.41,66.5 C57.42,66.5 57.43,66.51 57.44,66.51 C58.08,66.7 58.59,66.33 58.59,65.7 L58.59,64.74 C59.15,64.9 59.42,64.99 59.98,65.15 L59.98,66.11 C59.98,66.75 60.5,67.41 61.13,67.61 L61.14,67.61 C61.78,67.8 62.29,67.44 62.29,66.81 L62.29,65.85 C62.85,66.02 63.12,66.1 63.68,66.27 L63.68,67.23 C63.68,67.87 64.2,68.54 64.83,68.73 C65.47,68.92 65.98,68.56 65.98,67.93 L65.98,66.97 C66.54,67.14 66.81,67.22 67.37,67.39 L67.37,68.35 C67.37,68.99 67.89,69.66 68.52,69.84 C68.53,69.84 68.54,69.85 68.55,69.85 C69.19,70.04 69.7,69.67 69.7,69.04 L69.7,68.05 C69.61,65.93 71,66.57 71,66.57 C79.7,71.14 76.95,61.15 76.95,61.15 C82.1,50.57 77.05,43.43 71.64,38.99 Z M56.97,55.69 C54.57,54.99 52.62,52.52 52.62,50.11 C52.62,47.7 54.57,46.28 56.97,46.98 C59.38,47.68 61.32,50.22 61.32,52.62 C61.33,55.03 59.38,56.39 56.97,55.69 Z M64.45,62.59 C63.56,61.88 62.53,61.57 61.64,61.74 C61.29,61.81 61.07,61.63 61.07,60.64 C61.07,60 61.09,59.45 61.13,58.98 C61.23,57.88 62.06,57.28 63.04,57.57 C64.03,57.87 64.85,58.97 64.95,60.13 C64.99,60.62 65.01,61.19 65.01,61.83 C65.01,62.81 64.8,62.87 64.45,62.59 Z M69.16,59.33 C66.76,58.62 64.81,56.08 64.81,53.67 C64.81,51.26 66.76,49.91 69.16,50.62 C71.56,51.33 73.51,53.83 73.51,56.23 C73.51,58.64 71.56,60.05 69.16,59.33 Z" fill="#FFFFFF"/>
</svg>
